dist/img/partners/9.svg

<svg width="154" height="52" viewBox="0 0 154 52" fill="none" xmlns="http://www.w3.org/2000/svg">
<g clip-path="url(#clip0_216_761)">
<path d="M44.2083 51.4009H40.6547L33.3555 33.961H38.4532L42.562 45.0641H42.6343L46.6694 33.961H51.4748L44.2083 51.4009Z" fill="#005DA3"/>
<path d="M78.5553 38.4687C77.6743 37.956 76.8338 37.8451 76.3556 37.8451C75.3289 37.8451 74.376 38.211 73.165 39.2015V51.293H68.2109V33.961H72.3939L72.9441 35.7567C74.5242 34.3656 75.8766 33.559 77.7119 33.559C78.5553 33.559 79.5845 33.8155 80.3516 34.3656L78.5553 38.4687Z" fill="#005DA3"/>
<path d="M85.8457 51.6587C82.8741 51.6587 80.6368 50.9614 78.9844 49.9362L80.5273 46.346C81.9932 47.3698 83.7204 47.9577 85.3696 47.9577C87.0564 47.9577 88.1206 47.4087 88.1206 46.3821C88.1206 43.6341 80.0859 44.7344 80.0859 38.8717C80.0859 35.6833 82.6536 33.559 86.8705 33.559C89.1845 33.559 90.7976 33.8888 92.2262 34.4389V38.542C90.6508 37.917 88.964 37.3684 87.094 37.3684C85.6624 37.3684 84.891 37.77 84.891 38.614C84.891 40.9948 93.0696 40.1161 93.0696 46.1629C93.0696 50.1564 89.5493 51.6587 85.8457 51.6587Z" fill="#005DA3"/>
<path d="M100.784 51.6587C97.554 51.6587 96.3433 49.8268 96.3433 47.4809V38.3028H93.1523V34.4159H96.3433V29.9314L101.297 28.4639V34.4159H106.725L105.747 38.3028H101.297V45.6145C101.297 46.8934 101.809 47.5168 102.947 47.5168C104.009 47.5168 105.11 47.0429 105.77 46.6371L107.055 49.7173C105.075 51.1459 102.505 51.6587 100.784 51.6587Z" fill="#005DA3"/>
<path d="M117.407 43.4513L115.244 43.5236C113.116 43.5983 112.088 44.3314 112.088 45.6501C112.088 46.9668 113.041 47.8107 114.731 47.8107C116.05 47.8107 116.931 47.3698 117.407 47.004V43.4513ZM118.618 51.2929L117.847 49.7892C116.711 50.8161 115.172 51.6587 112.932 51.6587C109.63 51.6587 107.141 49.461 107.141 46.0131C107.141 42.3511 110.109 40.4458 114.508 40.2988L117.444 40.1909C117.444 40.1161 117.444 39.9705 117.444 39.8959C117.444 38.0665 115.978 37.2962 114.255 37.2962C112.494 37.2962 110.987 37.8087 109.816 38.4687L108.308 35.4644C110.694 33.9219 112.969 33.559 115.316 33.559C119.94 33.559 122.507 35.427 122.507 40.0064V51.3145L118.618 51.2929Z" fill="#005DA3"/>
<path d="M129.674 51.3145V23.4652L124.688 24.9717V51.3145H129.674Z" fill="#005DA3"/>
<path d="M8.13376 51.6587C4.64411 51.6587 2.15215 50.5223 0.0507812 49.2378L2.2558 45.1073C3.92833 46.2381 6.30492 47.5153 7.84651 47.5153C9.43488 47.5153 11.5072 46.9957 11.5072 45.1566C11.5072 41.9693 5.78284 41.3992 2.84776 38.0665C1.93441 37.0041 1.30884 35.6474 1.30884 33.7781C1.30884 30.1157 4.20636 26.8883 9.52482 26.8883C12.0933 26.8883 14.218 27.5496 15.6153 28.356L15.5417 32.9804C13.4874 31.8815 11.536 30.9181 9.55363 30.9181C7.75671 30.9181 6.57167 31.7158 6.57167 33.1069C6.57167 37.2845 16.9702 36.9275 16.9702 44.514C16.9702 48.911 13.0821 51.6587 8.13376 51.6587Z" fill="#005DA3"/>
<path d="M58.4721 37.1939C56.4983 37.1939 55.365 39.0171 55.365 40.5897H61.6132C61.5023 38.9448 60.5898 37.1939 58.4721 37.1939ZM55.4746 43.9823C55.5841 46.3169 57.7755 47.7039 60.0765 47.7039C61.7575 47.7039 63.039 47.3768 64.981 46.4639L66.1143 49.603C63.6966 51.0981 61.3204 51.6108 59.2732 51.6108C53.0655 51.6108 50.5039 47.2284 50.5039 42.7051C50.5039 37.8146 53.4288 33.579 58.616 33.579C63.3665 33.579 66.6558 37.1201 66.6558 42.4859C66.6558 42.8174 66.6558 43.3245 66.6558 43.9823H55.4746Z" fill="#005DA3"/>
<path d="M26.1277 37.1939C24.1542 37.1939 23.0239 39.0171 23.0239 40.5897H29.2722C29.1627 38.9448 28.2456 37.1939 26.1277 37.1939ZM23.1305 43.9823C23.2416 46.3169 25.4344 47.7039 27.7368 47.7039C29.4178 47.7039 30.6949 47.3768 32.6398 46.4639L33.7732 49.603C31.3526 51.0981 28.9767 51.6108 26.9308 51.6108C20.7203 51.6108 18.1641 47.2284 18.1641 42.7051C18.1641 37.8146 21.0877 33.579 26.2722 33.579C31.0224 33.579 34.3124 37.1201 34.3124 42.4859C34.3124 42.8174 34.3124 43.3245 34.3124 43.9823H23.1305Z" fill="#005DA3"/>
<path d="M150.495 19.0083C150.813 18.9074 151.122 18.7407 151.422 18.5273C151.883 17.3407 152.31 16.0185 152.692 14.5497H152.691C153.195 12.6029 153.501 10.8457 153.651 9.26733C153.8 7.6658 153.791 6.2488 153.662 4.99863C153.525 3.69105 153.18 2.35746 152.399 1.59155C151.619 0.825268 150.283 0.5028 148.968 0.390493C148.688 0.369551 148.398 0.354383 148.101 0.344994H146.708C146.075 0.364132 145.407 0.40963 144.706 0.485462C145.044 0.638212 145.344 0.825268 145.591 1.04699C146.373 1.76416 146.739 2.98254 146.898 4.17782C147.013 5.04774 147.062 6.00396 147.028 7.04938C146.973 8.7401 146.702 10.667 146.135 12.8532C145.698 14.541 145.182 16.0041 144.617 17.2772C145.494 17.816 146.333 18.2451 147.129 18.5735C148.246 19.0344 149.487 19.328 150.495 19.0083Z" fill="#006FB3"/>
<path d="M132.003 15.3873C131.931 15.7127 131.922 16.0671 131.957 16.436C132.754 17.4237 133.683 18.4492 134.762 19.5118C136.206 20.9262 137.585 22.0667 138.886 22.9824C140.195 23.9072 141.425 24.6043 142.562 25.1255C143.759 25.6785 145.092 26.033 146.146 25.742C147.2 25.4483 148.15 24.4485 148.904 23.3687C149.623 22.3403 150.32 21.1046 150.964 19.6327C150.659 19.8518 150.343 20.0246 150.019 20.1254C149.009 20.4452 147.769 20.1515 146.652 19.6905C145.84 19.3562 144.987 18.9215 144.094 18.3685C142.66 17.4756 141.125 16.2773 139.512 14.6962V14.6933C138.269 13.472 137.26 12.297 136.438 11.1707C135.534 11.6578 134.745 12.167 134.063 12.6917C133.106 13.429 132.231 14.3531 132.003 15.3873Z" fill="#E3E3E3"/>
<path d="M144.378 1.17632C144.144 0.963267 143.855 0.78452 143.538 0.637909C142.27 0.827853 140.903 1.11602 139.423 1.5248C137.489 2.06068 135.816 2.67421 134.372 3.3336C132.922 3.99913 131.705 4.71016 130.69 5.43924C129.609 6.21382 128.611 7.18774 128.335 8.25627C128.061 9.3248 128.459 10.6584 129.027 11.8591C129.559 12.9883 130.281 14.2009 131.227 15.4854C131.189 15.108 131.199 14.748 131.273 14.4168C131.501 13.3859 132.376 12.4582 133.331 11.7208C134.026 11.1881 134.828 10.6696 135.753 10.1741C137.244 9.37643 139.055 8.64771 141.234 8.04285C142.91 7.57918 144.432 7.29427 145.816 7.14694C145.848 6.11308 145.799 5.16552 145.684 4.30716C145.526 3.11188 145.16 1.89096 144.378 1.17632Z" fill="#DE1E25"/>
</g>
<defs>
<clipPath id="clip0_216_761">
<rect width="154" height="52" fill="white"/>
</clipPath>
</defs>
</svg>

<svg width="154" height="52" viewBox="0 0 154 52" fill="none" xmlns="http://www.w3.org/2000/svg"><g clip-path="url(#clip0_216_761)"><path d="M44.208 51.4h-3.553l-7.3-17.439h5.098l4.109 11.103h.072l4.035-11.103h4.806l-7.267 17.44zm34.347-12.931a4.485 4.485 0 00-2.2-.624c-1.026 0-1.979.366-3.19 1.357v12.091h-4.954V33.961h4.183l.55 1.796c1.58-1.391 2.933-2.198 4.768-2.198.843 0 1.873.257 2.64.807l-1.797 4.103zm7.291 13.19c-2.972 0-5.21-.698-6.862-1.723l1.543-3.59c1.466 1.024 3.193 1.612 4.843 1.612 1.686 0 2.75-.55 2.75-1.576 0-2.748-8.034-1.648-8.034-7.51 0-3.189 2.568-5.313 6.785-5.313 2.314 0 3.927.33 5.355.88v4.103c-1.575-.625-3.262-1.174-5.132-1.174-1.432 0-2.203.402-2.203 1.246 0 2.38 8.179 1.502 8.179 7.549 0 3.993-3.52 5.496-7.224 5.496zm14.938 0c-3.23 0-4.44-1.832-4.44-4.178v-9.178h-3.192v-3.887h3.191V29.93l4.954-1.467v5.952h5.428l-.978 3.887h-4.45v7.312c0 1.278.512 1.902 1.65 1.902 1.062 0 2.163-.474 2.823-.88l1.285 3.08c-1.98 1.429-4.55 1.942-6.271 1.942zm16.623-8.208l-2.163.073c-2.128.074-3.156.807-3.156 2.126 0 1.317.953 2.16 2.643 2.16 1.319 0 2.2-.44 2.676-.806v-3.553zm1.211 7.842l-.771-1.504c-1.136 1.027-2.675 1.87-4.915 1.87-3.302 0-5.791-2.198-5.791-5.646 0-3.662 2.968-5.567 7.367-5.714l2.936-.108v-.295c0-1.83-1.466-2.6-3.189-2.6a9.019 9.019 0 00-4.439 1.173l-1.508-3.005c2.386-1.542 4.661-1.905 7.008-1.905 4.624 0 7.191 1.868 7.191 6.447v11.309l-3.889-.022zm11.056.022v-27.85l-4.986 1.507v26.343h4.986zm-121.54.344c-3.49 0-5.982-1.137-8.083-2.421l2.205-4.13c1.672 1.13 4.049 2.407 5.59 2.407 1.589 0 3.661-.52 3.661-2.358 0-3.188-5.724-3.758-8.66-7.09-.913-1.063-1.538-2.42-1.538-4.289 0-3.662 2.897-6.89 8.216-6.89 2.568 0 4.693.662 6.09 1.468l-.073 4.624c-2.055-1.098-4.006-2.062-5.988-2.062-1.797 0-2.982.798-2.982 2.189 0 4.178 10.398 3.82 10.398 11.407 0 4.397-3.888 7.145-8.836 7.145zm50.338-14.465c-1.974 0-3.107 1.823-3.107 3.396h6.248c-.11-1.645-1.023-3.396-3.14-3.396zm-2.997 6.788c.11 2.335 2.3 3.722 4.602 3.722 1.68 0 2.962-.327 4.904-1.24l1.133 3.139c-2.417 1.495-4.794 2.008-6.84 2.008-6.209 0-8.77-4.383-8.77-8.906 0-4.89 2.925-9.126 8.112-9.126 4.75 0 8.04 3.541 8.04 8.907v1.496H55.475zm-29.347-6.788c-1.974 0-3.104 1.823-3.104 3.396h6.248c-.11-1.645-1.026-3.396-3.144-3.396zm-2.997 6.788c.11 2.335 2.303 3.722 4.606 3.722 1.68 0 2.958-.327 4.903-1.24l1.133 3.139c-2.42 1.495-4.796 2.008-6.842 2.008-6.21 0-8.767-4.383-8.767-8.906 0-4.89 2.924-9.126 8.108-9.126 4.75 0 8.04 3.541 8.04 8.907v1.496H23.131z" fill="#005DA3"/><path d="M150.495 19.008c.318-.1.627-.267.927-.48a36.036 36.036 0 001.27-3.978h-.001c.504-1.947.81-3.704.96-5.283.149-1.601.14-3.018.011-4.268-.137-1.308-.482-2.642-1.263-3.407-.78-.767-2.116-1.09-3.431-1.202-.28-.02-.57-.036-.867-.045h-1.393c-.633.02-1.301.065-2.002.14.338.153.638.34.885.562.782.717 1.148 1.936 1.307 3.13.115.87.164 1.827.13 2.872-.055 1.691-.326 3.618-.893 5.804a28.48 28.48 0 01-1.518 4.424 17.77 17.77 0 002.512 1.296c1.117.461 2.358.755 3.366.435z" fill="#006FB3"/><path d="M132.003 15.387c-.072.326-.081.68-.046 1.049a36.54 36.54 0 002.805 3.076c1.444 1.414 2.823 2.555 4.124 3.47a22.993 22.993 0 003.676 2.143c1.197.553 2.53.908 3.584.617 1.054-.294 2.004-1.294 2.758-2.373.719-1.029 1.416-2.264 2.06-3.736a3.35 3.35 0 01-.945.492c-1.01.32-2.25.026-3.367-.434a17.586 17.586 0 01-2.558-1.322c-1.434-.893-2.969-2.092-4.582-3.673v-.003a28.56 28.56 0 01-3.074-3.522c-.904.487-1.693.996-2.375 1.52-.957.738-1.832 1.662-2.06 2.696z" fill="#E3E3E3"/><path d="M144.378 1.176a3.311 3.311 0 00-.84-.538c-1.268.19-2.635.478-4.115.887-1.934.536-3.607 1.15-5.051 1.809-1.45.665-2.667 1.376-3.682 2.105-1.081.775-2.079 1.749-2.355 2.817-.274 1.069.124 2.402.692 3.603.532 1.13 1.254 2.342 2.2 3.626a3.367 3.367 0 01.046-1.068c.228-1.031 1.103-1.959 2.058-2.696a17.736 17.736 0 012.422-1.547c1.491-.798 3.302-1.526 5.481-2.131a28.517 28.517 0 014.582-.896 17.376 17.376 0 00-.132-2.84c-.158-1.195-.524-2.416-1.306-3.13z" fill="#DE1E25"/></g><defs><clipPath id="clip0_216_761"><path fill="#fff" d="M0 0h154v52H0z"/></clipPath></defs></svg>
